!!!COM: Bach, Johann Sebastian
!!!CDT: 1685/3//-1750/7/28/
!!!OTL@@DE: O Gott, du frommer Gott
!!!OTL@EN:  O pious God
!!!AGN: 4-Part Chorale
!!!SCT: BH 315
!!!SCT: BWV 399
**harm	**root	**kern	**kern	**kern	**kern
!	!	!bass	!tenor	!alto	!soprno
*	*Iorgan	*Iorgan	*Iorgan	*Iorgan	*Iorgan
*	*	*clefF4	*clefF4	*clefG2	*clefG2
*M4/4	*M4/4	*M4/4	*M4/4	*M4/4	*M4/4
*met(c)	*met(c)	*met(c)	*met(c)	*met(c)	*met(c)
*MM56	*MM56	*MM56	*MM56	*MM56	*MM56
*k[f#c#g#]	*k[f#c#g#]	*k[f#c#g#]	*k[f#c#g#]	*k[f#c#g#]	*k[f#c#g#]
*>[A,A,B]	*>[A,A,B]	*>[A,A,B]	*>[A,A,B]	*>[A,A,B]	*>[A,A,B]
*>A	*>A	*>A	*>A	*>A	*>A
*A:	*A:	*A:	*A:	*A:	*A:
vi	4EE	[4F#	8A	4a	4cc#
.	.	.	8B	.	.
=1	=1	=1	=1	=1	=1
iii7	4.BB	8F#]	4.c#	4g#	4cc#
.	.	4E	.	.	.
.	.	.	.	8a	4ff#
vii7Dc	8FF#	8D	8B	8g#	.
Ib	8GG	8C#	8c#	4a	4ee
IV	8CC	8D	8f#	.	.
V7	4DD	4E	4e	4g#	16dd
.	.	.	.	.	16cc#
.	.	.	.	.	8dd
=2	=2	=2	=2	=2	=2
I;	2.GG;	2.AA;	2.e;	2.a;	2.cc#;
I	8GG	8AA	8e	4a	8cc#
ii7	8AA	8BB	8d	.	8dd
=3	=3	=3	=3	=3	=3
Ib	4GG	4C#	8c#	8a	4ee
.	.	.	8B	8g#	.
IV	4CC	[4D	4A	8f#	4a
.	.	.	.	16g#	.
.	.	.	.	16a	.
V7d	4DD	8D]	4e	4g#	4b
.	.	8C#	.	.	.
I	4GG	8BB	4e	[4a	4cc#
.	.	8AA	.	.	.
=4	=4	=4	=4	=4	=4
V7	2DD	2E	4.e	8a]	2b
.	.	.	.	8f#	.
.	.	.	.	4g#	.
.	.	.	8d	.	.
I;	4GG;	4AA;	4c#;	4e;	4a;
=:|!	=:|!	=:|!	=:|!	=:|!	=:|!
*>B	*>B	*>B	*>B	*>B	*>B
V7d/V	4AA	[4A	4d#	4f#	4b
=5	=5	=5	=5	=5	=5
Vb	4DD	8A]	4e	4e	4b
.	.	8G#	.	.	.
iiib	4BB	8F#	4e	4g#	4cc#
.	.	8E	.	.	.
IVb	4CC	4F#	8d	4a	8dd
.	.	.	8c#	.	8ff#
vi	8EE	4G#	8B	4b	8ee
V7b	8DD	.	8e	.	8dd
!!linebreak: 2
=6	=6	=6	=6	=6	=6
I;	2.GG;	2.A;	2.e;	2.a;	2.cc#;
*E:	*E:	*E:	*E:	*E:	*E:
IV	4GG	4AA	4e	8a	4cc#
.	.	.	.	8g#	.
=7	=7	=7	=7	=7	=7
V7d	8AA	8A	8d#	8f#	4b
Ib	8DD	8G#	8B	16e	.
.	.	.	.	16d#	.
IV	8GG	8c#	8A	4e	8ee
I	8DD	8B	8G#	.	16ff#
.	.	.	.	.	16gg#
iib	8EE	8A	8c#	8a	4ff#
ii	8EE	8F#	8a	8cc#	.
Ic	8DD	4B	8g#	8b	8ee
V	8AA	.	8f#	8a	8dd#
=8	=8	=8	=8	=8	=8
I;	2.DD;	2.E;	2.e;	2.g#;	2.ee;
*D:	*D:	*D:	*D:	*D:	*D:
V/V	4DD	8e	4g#	4b	4ee
.	.	8d	.	.	.
=9	=9	=9	=9	=9	=9
Vb	4GG	8c#	4a	4a	4ee
.	.	8B	.	.	.
V7d	4GG	8A	4e	4a	4cc#
.	.	8G	.	.	.
Ib	4CC	8F#	4f#	4a	4dd
.	.	8E	.	.	.
V7b	4GG	8D	4g	4a	4ee
.	.	8C#	.	.	.
=10	=10	=10	=10	=10	=10
I;	2.CC;	2.D;	2.f#;	2.a;	2.ff#;
*A:	*A:	*A:	*A:	*A:	*A:
V	4DD	4E	4e	4g#	4b
=11	=11	=11	=11	=11	=11
I	4GG	8AA	4e	4a	8cc#
.	.	8BB	.	.	16dd
.	.	.	.	.	16ee
IV7	4CC	8C#	8e	4a	8dd
.	.	8D	8f#	.	8cc#
Ic	4GG	4E	4e	4a	4cc#
V7	4DD	4E	4d	4g#	8b
.	.	.	.	.	8a
=12	=12	=12	=12	=12	=12
I;	2.GG;	2.AA;	2.c#;	2.e;	2.a;
==|!	==|!	==|!	==|!	==|!	==|!
*-	*-	*-	*-	*-	*-
!!chor2scor: -l 2 -o %b.pmx
!!!YEC: Copyright 2003 by Craig Stuart Sapp
!!!license: GNU General Public License (http://www.gnu.org/copyleft/gpl.html)
!!!SMA: 371 Bach Chorales, edited by Ludwig Erk, C.F. Peters
!!!PDT: 1850, 1865
!!!ONB: Harmony and Root analysis done manually by Craig Sapp
